X:1
T:Title
%%score { ( 1 4 ) | ( 2 3 ) }
L:1/8
Q:1/4=100
M:4/4
K:G
V:1 treble nm="Grand Piano"
V:4 treble 
V:2 bass 
V:3 bass 
V:1
 [B,D]2 [DB]>[DB] [DB]2 [DA]>[DG] | [DF]2 E2 E2 z2 | DFFG A2 z2 | DGGA B2 z2 | %4
w: T.~Martin~Towne * * * * *||||
 [B,D]2 [DB]>[DB] [DB]2 [DA][DG] | [CE]2 [Ec]2 [Ec]2 z2 | BcdB A2 z2 | %7
w: |||
 G[CFA][DGB][CDA] [B,DG]2 z2 | [A,DF]2 [A,DF]>[B,DG] [CFA]2 (3DFA | G2 G>A B2 (3DGB | Addd ^ccBc | %11
w: ||||
 [Fd]4 c4 | BBB[FA] G2 (3EGB | [Ec][Ec][Ec][DEB] [CEA]2 z2 | [DA][Fd][F^c][Fd] [Fe][Gd][F=c][CDA] | %15
w: ||||
 G6 z2 |] %16
w: |
V:2
 [G,,G,]2 [G,,G,]>[G,,G,] [G,,G,]2 [A,,F,]>[B,,G,] | [C,G,]2 [C,G,C]2 [C,G,C]2 z2 | %2
 [D,F,A,][D,A,D][D,A,D][D,B,D] [D,CD]2 z2 | [G,B,][G,B,D][G,B,D][G,CD] [G,DG]2 z2 | %4
 [G,,G,]2 [G,,G,]>[G,,G,] [G,,G,]2 [A,,F,][B,,G,] | [C,G,]2 [C,G,]2 [C,G,]2 z2 | %6
 [G,D][G,A,D][G,B,D][G,D] [D,F,D]2 z2 | [D,B,D]D,D,D, G,,2 z2 | D,2 D,>D, D,2 z2 | %9
 [G,B,D]2 [G,B,D]>[G,CD] [G,DG]2 z2 | [A,DF][A,F][A,F][A,F] [A,E][A,E][A,G][A,G] | A,4 [DA]4 | %12
 [G,DG][G,DG][G,DG][K:bass][D,C] [E,B,E]2 z2 | [A,,A,][A,,A,][A,,A,]B,, C,2[K:treble] (3CEA | %14
 [D,F,][D,A,][D,A,][D,A,] [D,C][D,B,][D,A,]D, | z G,E,C B,2 z2 |] %16
V:3
 x8 | x8 | x8 | x8 | x8 | x8 | x8 | x8 | x8 | x8 | x8 | D,8 | x3[K:bass] x5 | x6[K:treble] x2 | %14
 x8 | G,,6 z2 |] %16
V:4
 x8 | x8 | x8 | x8 | x8 | x8 | x8 | x8 | x8 | x8 | x8 | x8 | x8 | x8 | x8 | [B,D]B,CE D2 z2 |] %16

